public/images/sponsors/Telstra.svg

<svg fill="none" height="86" viewBox="0 0 172 86" width="172" xmlns="http://www.w3.org/2000/svg" xmlns:xlink="http://www.w3.org/1999/xlink"><clipPath id="a"><path d="m0 0h172v86h-172z"/></clipPath><clipPath id="b"><path d="m0 28h25.6546v29.6015h-25.6546z"/></clipPath><g clip-path="url(#a)"><g clip-path="url(#b)"><path d="m17.1583 40.9837-1.1338 6.6772c-.2344 1.2018-1.024 1.5269-1.7249 1.5269h-5.25326l2.21326-12.2299c-2.21023-1.0128-4.46675-1.6741-6.26361-1.6741-1.70971 0-3.09841.4635-4.021086 1.5734-.650881.789-.974904 1.7629-.974904 2.9219 0 3.4767 2.72944 8.3014 7.4005 12.237 4.1645 3.479 8.7457 5.427 12.0799 5.427 1.6632 0 3.0049-.5105 3.8855-1.5292.6933-.7891.9695-1.8111.9695-2.9691 0-3.3787-2.7481-8.1153-7.1771-11.9611z" fill="#ff2896"/><path d="m7.72675 28.0478c-.8337 0-1.52679.5606-1.71153 1.4406l-.73934 4.031h6.60662l-2.83638 15.6683h5.25328c.7009 0 1.4905-.325 1.7249-1.5268l2.402-14.1415h4.7515c.837 0 1.5285-.5568 1.7135-1.4367l.7417-4.0349z" fill="#570066"/></g><g fill="#414141"><path d="m58.5942 38.3543c.0925.8048.1388 1.753.1388 2.8445 0 1.0916-.0463 2.0444-.1388 2.8584-.0925.8141-.3238 1.6975-.6938 2.6503-.3607.9435-.8695 1.7483-1.5263 2.4144-.666.6937-1.4893 1.2303-2.4699 1.6095-.9805.3701-2.0443.5551-3.1914.5551h-7.8398v-20.1475h7.8398c1.1471 0 2.2109.1896 3.1914.5689.9806.37 1.8039.9019 2.4699 1.5957.6568.666 1.1656 1.4708 1.5263 2.4143.37.9436.6013 1.8224.6938 2.6364zm-3.6354 4.357c.0277-.3978.0416-.9019.0416-1.5125 0-.6105-.0139-1.11-.0416-1.4985-.0185-.3885-.0694-.8649-.1527-1.4292-.074-.5736-.2173-1.0823-.4301-1.5264-.2128-.4532-.4857-.8464-.8187-1.1794-.7493-.7493-1.6974-1.1239-2.8445-1.1239h-4.1766v13.5427h4.1766c1.1471 0 2.0952-.3747 2.8445-1.124.333-.333.6059-.7261.8187-1.1794s.3561-.9621.4301-1.5263c.0833-.5736.1342-1.0546.1527-1.4431z"/><path d="m74.3847 44.0156c-.0185.444-.0277.7724-.0277.9852h-9.8934c-.0277 1.2118.333 2.1785 1.0823 2.9.6476.6105 1.3737.9158 2.1785.9158.9713 0 1.6928-.2359 2.1646-.7077.3515-.3515.5874-.7677.7077-1.2488h3.4134c-.037.4163-.1804.8834-.4301 1.4015-.2406.518-.5134.9574-.8187 1.3182-.6013.703-1.3367 1.2256-2.2062 1.5679-.8603.3423-1.7854.5134-2.7752.5134-1.8223 0-3.3718-.6059-4.6483-1.8177-1.5171-1.4616-2.2757-3.4319-2.2757-5.911 0-2.4977.7077-4.468 2.123-5.9111 1.2303-1.2581 2.8029-1.8871 4.7178-1.8871 1.1285 0 2.1599.2313 3.0942.6938.9436.4625 1.7114 1.1424 2.3034 2.0397.9251 1.3783 1.3552 3.0943 1.2904 5.1479zm-3.5521-1.5957c-.0278-1.0823-.333-1.9426-.9158-2.5809-.5458-.5735-1.2951-.8603-2.2479-.8603-1.073 0-1.8963.3793-2.4699 1.1378-.481.6106-.7354 1.3784-.7631 2.3034z"/><path d="m89.6619 36.5089-5.3422 14.7776h-3.7741l-5.4809-14.7776h3.7464l3.6909 10.4067 3.4967-10.4067z"/><path d="m103.968 44.0156c-.019.444-.028.7724-.028.9852h-9.8934c-.0278 1.2118.333 2.1785 1.0823 2.9.6475.6105 1.3737.9158 2.1785.9158.9713 0 1.6928-.2359 2.1646-.7077.3515-.3515.587-.7677.708-1.2488h3.413c-.037.4163-.18.8834-.43 1.4015-.241.518-.513.9574-.819 1.3182-.601.703-1.336 1.2256-2.206 1.5679-.8603.3423-1.7853.5134-2.7751.5134-1.8223 0-3.3718-.6059-4.6484-1.8177-1.517-1.4616-2.2756-3.4319-2.2756-5.911 0-2.4977.7077-4.468 2.123-5.9111 1.2303-1.2581 2.8029-1.8871 4.7177-1.8871 1.1286 0 2.16.2313 3.0944.6938.943.4625 1.711 1.1424 2.303 2.0397.925 1.3783 1.355 3.0943 1.291 5.1479zm-3.552-1.5957c-.028-1.0823-.333-1.9426-.9163-2.5809-.5457-.5735-1.295-.8603-2.2478-.8603-1.0731 0-1.8964.3793-2.4699 1.1378-.481.6106-.7354 1.3784-.7632 2.3034z"/><path d="m112.515 51.2587c-.657.1295-1.179.1943-1.568.1943-1.267 0-2.257-.3192-2.969-.9574-.712-.6476-1.069-1.6512-1.069-3.0111v-16.7479h3.58v16.1513c0 .4718.097.8279.292 1.0684.194.2313.573.3469 1.137.3469.121 0 .236-.0046.347-.0139.111-.0092.195-.0139.25-.0139z"/><path d="m127.515 40.8242c.287.851.43 1.8778.43 3.0804s-.143 2.2294-.43 3.0804c-.287.8511-.722 1.642-1.305 2.3728-.545.666-1.276 1.2164-2.192 1.6512-.916.4347-1.91.6521-2.983.6521s-2.068-.2174-2.983-.6521c-.907-.4348-1.633-.9852-2.179-1.6512-.583-.7308-1.017-1.5217-1.304-2.3728-.287-.851-.43-1.8778-.43-3.0804s.143-2.2294.43-3.0804c.287-.8603.721-1.6558 1.304-2.3866.546-.6661 1.272-1.2165 2.179-1.6512.915-.4348 1.91-.6522 2.983-.6522s2.067.2174 2.983.6522c.916.4347 1.647.9851 2.192 1.6512.583.7308 1.018 1.5263 1.305 2.3866zm-3.178 3.0804c0-1.7021-.351-2.9463-1.054-3.7326-.583-.6197-1.332-.9296-2.248-.9296-.907 0-1.651.3099-2.234.9296-.703.7863-1.055 2.0305-1.055 3.7326 0 1.6928.352 2.9324 1.055 3.7187.583.6198 1.327.9297 2.234.9297.916 0 1.665-.3099 2.248-.9297.703-.7863 1.054-2.0259 1.054-3.7187z"/><path d="m144.735 43.863c0 2.9601-.884 5.1617-2.651 6.6048-.99.7955-2.192 1.1933-3.607 1.1933-.851 0-1.619-.1341-2.304-.4024-.684-.2775-1.202-.629-1.554-1.0545v6.7436h-3.552v-20.4389h3.066l.222 1.6234c.417-.6475.995-1.1378 1.735-1.4708.749-.333 1.554-.4995 2.414-.4995 1.342 0 2.535.4209 3.58 1.2627 1.767 1.443 2.651 3.5891 2.651 6.4383zm-3.622.0694c0-1.6004-.31-2.8076-.93-3.6216-.601-.7678-1.397-1.1517-2.386-1.1517-.666 0-1.231.1434-1.693.4302-.463.2867-.81.6799-1.041 1.1794-.231.4903-.393.9898-.486 1.4986-.092.5087-.138 1.0638-.138 1.6651 0 .4717.023.9158.069 1.332.056.407.157.8279.305 1.2627.158.4255.357.7956.597 1.1101.241.3052.564.555.971.7493.407.1942.879.2913 1.416.2913.98 0 1.776-.3885 2.386-1.1655.62-.8141.93-2.0074.93-3.5799z"/><path d="m160.359 44.0156c-.019.444-.028.7724-.028.9852h-9.894c-.027 1.2118.333 2.1785 1.083 2.9.647.6105 1.373.9158 2.178.9158.972 0 1.693-.2359 2.165-.7077.351-.3515.587-.7677.707-1.2488h3.414c-.037.4163-.18.8834-.43 1.4015-.241.518-.514.9574-.819 1.3182-.601.703-1.337 1.2256-2.206 1.5679-.86.3423-1.785.5134-2.775.5134-1.823 0-3.372-.6059-4.649-1.8177-1.517-1.4616-2.275-3.4319-2.275-5.911 0-2.4977.707-4.468 2.123-5.9111 1.23-1.2581 2.803-1.8871 4.717-1.8871 1.129 0 2.16.2313 3.095.6938.943.4625 1.711 1.1424 2.303 2.0397.925 1.3783 1.355 3.0943 1.291 5.1479zm-3.553-1.5957c-.027-1.0823-.333-1.9426-.915-2.5809-.546-.5735-1.296-.8603-2.248-.8603-1.073 0-1.897.3793-2.47 1.1378-.481.6106-.736 1.3784-.763 2.3034z"/><path d="m172 39.8113c-.49-.1018-.897-.1527-1.221-.1527-1.212 0-2.151.3886-2.817 1.1656-.656.7678-.985 1.7715-.985 3.011v7.4513h-3.58v-14.7776h3.011l.306 2.2201c.323-.8048.865-1.4061 1.623-1.8039.768-.407 1.619-.6105 2.553-.6105.37 0 .74.0278 1.11.0833z"/></g></g></svg>

<svg width="172" height="86" viewBox="0 0 172 86" fill="none" xmlns="http://www.w3.org/2000/svg">
<g clip-path="url(#clip0)">
<g clip-path="url(#clip1)">
<path d="M17.1583 40.9837L16.0245 47.6609C15.7901 48.8627 15.0005 49.1878 14.2996 49.1878H9.04634L11.2596 36.9579C9.04937 35.9451 6.79285 35.2838 4.99599 35.2838C3.28628 35.2838 1.89758 35.7473 0.974904 36.8572C0.324023 37.6462 0 38.6201 0 39.7791C0 43.2558 2.72944 48.0805 7.4005 52.0161C11.565 55.4951 16.1462 57.4431 19.4804 57.4431C21.1436 57.4431 22.4853 56.9326 23.3659 55.9139C24.0592 55.1248 24.3354 54.1028 24.3354 52.9448C24.3354 49.5661 21.5873 44.8295 17.1583 40.9837Z" fill="#FF2896"/>
<path d="M7.72675 28.0478C6.89305 28.0478 6.19996 28.6084 6.01522 29.4884L5.27588 33.5194H11.8825L9.04612 49.1877H14.2994C15.0003 49.1877 15.7899 48.8627 16.0243 47.6609L18.4263 33.5194H23.1778C24.0148 33.5194 24.7063 32.9626 24.8913 32.0827L25.633 28.0478H7.72675Z" fill="#570066"/>
</g>
<path d="M58.5942 38.3543C58.6867 39.1591 58.733 40.1073 58.733 41.1988C58.733 42.2904 58.6867 43.2432 58.5942 44.0572C58.5017 44.8713 58.2704 45.7547 57.9004 46.7075C57.5397 47.651 57.0309 48.4558 56.3741 49.1219C55.7081 49.8156 54.8848 50.3522 53.9042 50.7314C52.9237 51.1015 51.8599 51.2865 50.7128 51.2865H42.873V31.139H50.7128C51.8599 31.139 52.9237 31.3286 53.9042 31.7079C54.8848 32.0779 55.7081 32.6098 56.3741 33.3036C57.0309 33.9696 57.5397 34.7744 57.9004 35.7179C58.2704 36.6615 58.5017 37.5403 58.5942 38.3543ZM54.9588 42.7113C54.9865 42.3135 55.0004 41.8094 55.0004 41.1988C55.0004 40.5883 54.9865 40.0888 54.9588 39.7003C54.9403 39.3118 54.8894 38.8354 54.8061 38.2711C54.7321 37.6975 54.5888 37.1888 54.376 36.7447C54.1632 36.2915 53.8903 35.8983 53.5573 35.5653C52.808 34.816 51.8599 34.4414 50.7128 34.4414H46.5362V47.9841H50.7128C51.8599 47.9841 52.808 47.6094 53.5573 46.8601C53.8903 46.5271 54.1632 46.134 54.376 45.6807C54.5888 45.2274 54.7321 44.7186 54.8061 44.1544C54.8894 43.5808 54.9403 43.0998 54.9588 42.7113Z" fill="#414141"/>
<path d="M74.3847 44.0156C74.3662 44.4596 74.357 44.788 74.357 45.0008H64.4636C64.4359 46.2126 64.7966 47.1793 65.5459 47.9008C66.1935 48.5113 66.9196 48.8166 67.7244 48.8166C68.6957 48.8166 69.4172 48.5807 69.889 48.1089C70.2405 47.7574 70.4764 47.3412 70.5967 46.8601H74.0101C73.9731 47.2764 73.8297 47.7435 73.58 48.2616C73.3394 48.7796 73.0666 49.219 72.7613 49.5798C72.16 50.2828 71.4246 50.8054 70.5551 51.1477C69.6948 51.49 68.7697 51.6611 67.7799 51.6611C65.9576 51.6611 64.4081 51.0552 63.1316 49.8434C61.6145 48.3818 60.8559 46.4115 60.8559 43.9324C60.8559 41.4347 61.5636 39.4644 62.9789 38.0213C64.2092 36.7632 65.7818 36.1342 67.6967 36.1342C68.8252 36.1342 69.8566 36.3655 70.7909 36.828C71.7345 37.2905 72.5023 37.9704 73.0943 38.8677C74.0194 40.246 74.4495 41.962 74.3847 44.0156ZM70.8326 42.4199C70.8048 41.3376 70.4996 40.4773 69.9168 39.839C69.371 39.2655 68.6217 38.9787 67.6689 38.9787C66.5959 38.9787 65.7726 39.358 65.199 40.1165C64.718 40.7271 64.4636 41.4949 64.4359 42.4199H70.8326Z" fill="#414141"/>
<path d="M89.6619 36.5089L84.3197 51.2865H80.5456L75.0647 36.5089H78.8111L82.502 46.9156L85.9987 36.5089H89.6619Z" fill="#414141"/>
<path d="M103.968 44.0156C103.949 44.4596 103.94 44.788 103.94 45.0008H94.0466C94.0188 46.2126 94.3796 47.1793 95.1289 47.9008C95.7764 48.5113 96.5026 48.8166 97.3074 48.8166C98.2787 48.8166 99.0002 48.5807 99.472 48.1089C99.8235 47.7574 100.059 47.3412 100.18 46.8601H103.593C103.556 47.2764 103.413 47.7435 103.163 48.2616C102.922 48.7796 102.65 49.219 102.344 49.5798C101.743 50.2828 101.008 50.8054 100.138 51.1477C99.2777 51.49 98.3527 51.6611 97.3629 51.6611C95.5406 51.6611 93.9911 51.0552 92.7145 49.8434C91.1975 48.3818 90.4389 46.4115 90.4389 43.9324C90.4389 41.4347 91.1466 39.4644 92.5619 38.0213C93.7922 36.7632 95.3648 36.1342 97.2796 36.1342C98.4082 36.1342 99.4396 36.3655 100.374 36.828C101.317 37.2905 102.085 37.9704 102.677 38.8677C103.602 40.246 104.032 41.962 103.968 44.0156ZM100.416 42.4199C100.388 41.3376 100.083 40.4773 99.4997 39.839C98.954 39.2655 98.2047 38.9787 97.2519 38.9787C96.1788 38.9787 95.3555 39.358 94.782 40.1165C94.301 40.7271 94.0466 41.4949 94.0188 42.4199H100.416Z" fill="#414141"/>
<path d="M112.515 51.2587C111.858 51.3882 111.336 51.453 110.947 51.453C109.68 51.453 108.69 51.1338 107.978 50.4956C107.266 49.848 106.909 48.8444 106.909 47.4845V30.7366H110.489V46.8879C110.489 47.3597 110.586 47.7158 110.781 47.9563C110.975 48.1876 111.354 48.3032 111.918 48.3032C112.039 48.3032 112.154 48.2986 112.265 48.2893C112.376 48.2801 112.46 48.2754 112.515 48.2754V51.2587Z" fill="#414141"/>
<path d="M127.515 40.8242C127.802 41.6752 127.945 42.702 127.945 43.9046C127.945 45.1072 127.802 46.134 127.515 46.985C127.228 47.8361 126.793 48.627 126.21 49.3578C125.665 50.0238 124.934 50.5742 124.018 51.009C123.102 51.4437 122.108 51.6611 121.035 51.6611C119.962 51.6611 118.967 51.4437 118.052 51.009C117.145 50.5742 116.419 50.0238 115.873 49.3578C115.29 48.627 114.856 47.8361 114.569 46.985C114.282 46.134 114.139 45.1072 114.139 43.9046C114.139 42.702 114.282 41.6752 114.569 40.8242C114.856 39.9639 115.29 39.1684 115.873 38.4376C116.419 37.7715 117.145 37.2211 118.052 36.7864C118.967 36.3516 119.962 36.1342 121.035 36.1342C122.108 36.1342 123.102 36.3516 124.018 36.7864C124.934 37.2211 125.665 37.7715 126.21 38.4376C126.793 39.1684 127.228 39.9639 127.515 40.8242ZM124.337 43.9046C124.337 42.2025 123.986 40.9583 123.283 40.172C122.7 39.5523 121.951 39.2424 121.035 39.2424C120.128 39.2424 119.384 39.5523 118.801 40.172C118.098 40.9583 117.746 42.2025 117.746 43.9046C117.746 45.5974 118.098 46.837 118.801 47.6233C119.384 48.2431 120.128 48.553 121.035 48.553C121.951 48.553 122.7 48.2431 123.283 47.6233C123.986 46.837 124.337 45.5974 124.337 43.9046Z" fill="#414141"/>
<path d="M144.735 43.863C144.735 46.8231 143.851 49.0247 142.084 50.4678C141.094 51.2633 139.892 51.6611 138.477 51.6611C137.626 51.6611 136.858 51.527 136.173 51.2587C135.489 50.9812 134.971 50.6297 134.619 50.2042V56.9478H131.067V36.5089H134.133L134.355 38.1323C134.772 37.4848 135.35 36.9945 136.09 36.6615C136.839 36.3285 137.644 36.162 138.504 36.162C139.846 36.162 141.039 36.5829 142.084 37.4247C143.851 38.8677 144.735 41.0138 144.735 43.863ZM141.113 43.9324C141.113 42.332 140.803 41.1248 140.183 40.3108C139.582 39.543 138.786 39.1591 137.797 39.1591C137.131 39.1591 136.566 39.3025 136.104 39.5893C135.641 39.876 135.294 40.2692 135.063 40.7687C134.832 41.259 134.67 41.7585 134.577 42.2673C134.485 42.776 134.439 43.3311 134.439 43.9324C134.439 44.4041 134.462 44.8482 134.508 45.2644C134.564 45.6714 134.665 46.0923 134.813 46.5271C134.971 46.9526 135.17 47.3227 135.41 47.6372C135.651 47.9424 135.974 48.1922 136.381 48.3865C136.788 48.5807 137.26 48.6778 137.797 48.6778C138.777 48.6778 139.573 48.2893 140.183 47.5123C140.803 46.6982 141.113 45.5049 141.113 43.9324Z" fill="#414141"/>
<path d="M160.359 44.0156C160.34 44.4596 160.331 44.788 160.331 45.0008H150.437C150.41 46.2126 150.77 47.1793 151.52 47.9008C152.167 48.5113 152.893 48.8166 153.698 48.8166C154.67 48.8166 155.391 48.5807 155.863 48.1089C156.214 47.7574 156.45 47.3412 156.57 46.8601H159.984C159.947 47.2764 159.804 47.7435 159.554 48.2616C159.313 48.7796 159.04 49.219 158.735 49.5798C158.134 50.2828 157.398 50.8054 156.529 51.1477C155.669 51.49 154.744 51.6611 153.754 51.6611C151.931 51.6611 150.382 51.0552 149.105 49.8434C147.588 48.3818 146.83 46.4115 146.83 43.9324C146.83 41.4347 147.537 39.4644 148.953 38.0213C150.183 36.7632 151.756 36.1342 153.67 36.1342C154.799 36.1342 155.83 36.3655 156.765 36.828C157.708 37.2905 158.476 37.9704 159.068 38.8677C159.993 40.246 160.423 41.962 160.359 44.0156ZM156.806 42.4199C156.779 41.3376 156.473 40.4773 155.891 39.839C155.345 39.2655 154.595 38.9787 153.643 38.9787C152.57 38.9787 151.746 39.358 151.173 40.1165C150.692 40.7271 150.437 41.4949 150.41 42.4199H156.806Z" fill="#414141"/>
<path d="M172 39.8113C171.51 39.7095 171.103 39.6586 170.779 39.6586C169.567 39.6586 168.628 40.0472 167.962 40.8242C167.306 41.592 166.977 42.5957 166.977 43.8352V51.2865H163.397V36.5089H166.408L166.714 38.729C167.037 37.9242 167.579 37.3229 168.337 36.9251C169.105 36.5181 169.956 36.3146 170.89 36.3146C171.26 36.3146 171.63 36.3424 172 36.3979V39.8113Z" fill="#414141"/>
</g>
<defs>
<clipPath id="clip0">
<rect width="172" height="86" fill="white"/>
</clipPath>
<clipPath id="clip1">
<rect width="25.6546" height="29.6015" fill="white" transform="translate(0 28)"/>
</clipPath>
</defs>
</svg>
